test_assets/invert_green.cube
TITLE "Invert Green (size 4)"

LUT_3D_SIZE 4

0.000000 1.000000 0.000000
0.000000 1.000000 0.333333
0.000000 1.000000 0.666667
0.000000 1.000000 1.000000
0.000000 0.666667 0.000000
0.000000 0.666667 0.333333
0.000000 0.666667 0.666667
0.000000 0.666667 1.000000
0.000000 0.333333 0.000000
0.000000 0.333333 0.333333
0.000000 0.333333 0.666667
0.000000 0.333333 1.000000
0.000000 0.000000 0.000000
0.000000 0.000000 0.333333
0.000000 0.000000 0.666667
0.000000 0.000000 1.000000
0.333333 1.000000 0.000000
0.333333 1.000000 0.333333
0.333333 1.000000 0.666667
0.333333 1.000000 1.000000
0.333333 0.666667 0.000000
0.333333 0.666667 0.333333
0.333333 0.666667 0.666667
0.333333 0.666667 1.000000
0.333333 0.333333 0.000000
0.333333 0.333333 0.333333
0.333333 0.333333 0.666667
0.333333 0.333333 1.000000
0.333333 0.000000 0.000000
0.333333 0.000000 0.333333
0.333333 0.000000 0.666667
0.333333 0.000000 1.000000
0.666667 1.000000 0.000000
0.666667 1.000000 0.333333
0.666667 1.000000 0.666667
0.666667 1.000000 1.000000
0.666667 0.666667 0.000000
0.666667 0.666667 0.333333
0.666667 0.666667 0.666667
0.666667 0.666667 1.000000
0.666667 0.333333 0.000000
0.666667 0.333333 0.333333
0.666667 0.333333 0.666667
0.666667 0.333333 1.000000
0.666667 0.000000 0.000000
0.666667 0.000000 0.333333
0.666667 0.000000 0.666667
0.666667 0.000000 1.000000
1.000000 1.000000 0.000000
1.000000 1.000000 0.333333
1.000000 1.000000 0.666667
1.000000 1.000000 1.000000
1.000000 0.666667 0.000000
1.000000 0.666667 0.333333
1.000000 0.666667 0.666667
1.000000 0.666667 1.000000
1.000000 0.333333 0.000000
1.000000 0.333333 0.333333
1.000000 0.333333 0.666667
1.000000 0.333333 1.000000
1.000000 0.000000 0.000000
1.000000 0.000000 0.333333
1.000000 0.000000 0.666667
1.000000 0.000000 1.000000
